!!!OTL: Lindenlaub
!!!ARE: Europa, Mitteleuropa, Deutschland
!!!SCT: A0174
!!!YEM: Copyright 1995, estate of Helmut Schaffrath.
**kern
*ICvox
*Ivox
*M6/2
*k[b-]
*F:
{2f
=1
1f
2f
1f
2g
=2
1.a
1.cc}
=3
{1f
2f
1f
2e
=4
1.d
1c}
{2cc
=5
1.cc
1a
2a
=6
1cc
2cc
1b-
2a
=7
1.g
1a}
{2a
=8
1f
2f
1b-
2b-
=9
2g
2a
2b-
1cc}
{2cc
=10
1cc
2b-
2a
1g
=11
[1.f
1f]}
==
!!!AGN: Romanze, Ballade, Lied
!! Forster II 1540 No. 76.
!!!ONB: ESAC (Essen Associative Code) Database: ALTDEU
!!!AMT: compound duple
!!!AIN: vox
!!!EED: Helmut Schaffrath
!!!EEV: 1.0
*-
